!!!COM: Corelli, Arcangelo
!!!OTL: 
!!!ONM: Opus 6, No. 8
!!!OMV: 7
!!!CDT: 1653/2/17/-1713/1/8/
!!!OCY: Italia
**kern	**kern	**kern	**kern	**kern	**kern	**kern
*clefC	*clefG	*clefG	*clefG	*clefC	*clefG	*clefG
*k[]	*k[]	*k[]	*k[f#]	*k[]	*k[]	*k[]
*C:	*C:	*C:	*C:	*C:	*C:	*C:
*M12/8	*M12/8	*M12/8	*M12/8	*M12/8	*M12/8	*M12/8
=1	=1	=1	=1	=1	=1	=1
4.GG	4.d	4.g	2.G 2.g	2.G	4g	4b
.	.	.	.	.	8a	8cc
2..r	2..r	4.r	.	.	4b	4dd
.	.	.	.	.	8g	8b
.	.	2.g 2.G	2.g 2.G	2.G	4cc	4ee
.	.	.	.	.	8b	8dd
.	.	.	.	.	8cc	8ee
4r	4r	.	.	.	8b	8dd
.	.	.	.	.	8a	8cc
=2	=2	=2	=2	=2	=2	=2
1.r	1.r	2.g 2.G	2.G 2.g	2.G	4b	4dd
.	.	.	.	.	8a	8cc
.	.	.	.	.	4b	4dd
.	.	.	.	.	8g	8b
.	.	4.c	4.c	4.C	8e	8cc
.	.	.	.	.	8f#	8dd
.	.	.	.	.	8g	8b
.	.	4.d	4.d	4.D	8d	4a
.	.	.	.	.	8g	.
.	.	.	.	.	8f#	8dd
=3	=3	=3	=3	=3	=3	=3
1.r	1.r	4.G	4.G	4.GG	4g	4b
.	.	.	.	.	8a	8cc
.	.	4.r	4.r	4.r	4b	4dd
.	.	.	.	.	8g	8b
.	.	2.dd 2.d	2.dd 2.d	2.D	4d	4f#
.	.	.	.	.	8e	8g
.	.	.	.	.	4f#	4a
.	.	.	.	.	8d	8f#
=4	=4	=4	=4	=4	=4	=4
1.r	1.r	2.dd 2.d	2.dd 2.d	2.D	4g	4b
.	.	.	.	.	8f#	8a
.	.	.	.	.	8g	8b
.	.	.	.	.	8f#	8a
.	.	.	.	.	8e	8g
.	.	2.dd 2.d	2.dd 2.d	2.D	4f#	4a
.	.	.	.	.	8e	8g
.	.	.	.	.	4f#	4a
.	.	.	.	.	8d	8f#
=5	=5	=5	=5	=5	=5	=5
1.r	1.r	4.G	4.G	4.GG	8B	8g
.	.	.	.	.	8c#	8a
.	.	.	.	.	8d	8f#
.	.	4.A	4.A	4.AA	8A	4e
.	.	.	.	.	8d	.
.	.	.	.	.	8c#	8a
.	.	4.d	4.d	4.DD	4d	4f#
.	.	.	.	.	8e	8g
.	.	4.r	4.r	4.r	4f#	4a
.	.	.	.	.	8d	8f#
=6	=6	=6	=6	=6	=6	=6
4GG	2.G 2.g	2.r	2.gg	4GG	4b	2.gg
8AA	.	.	.	8AA	8cc	.
4BB	.	.	.	4BB	4dd	.
8GG	.	.	.	8GG	8b	.
4C	2.g 2.G	2.gg	2.gg	4C	4ee	2.gg
8BB	.	.	.	8BB	8dd	.
8C	.	.	.	8C	8ee	.
8BB	.	.	.	8BB	8dd	.
8AA	.	.	.	8AA	8cc	.
=7	=7	=7	=7	=7	=7	=7
4BB	2.G 2.g	2.gg	2.gg	4BB	4dd	2.gg
8AA	.	.	.	8AA	8cc	.
4BB	.	.	.	4BB	4dd	.
8GG	.	.	.	8GG	8b	.
8C	4.c	8ee	4.gg	8C	8ee	4.gg
8BB	.	8dd	.	8BB	8dd	.
8C	.	8ee	.	8C	8ee	.
4D	4.d	4a	4.ff#	4D	4a	4.ff#
8DD	.	8dd	.	8DD	8dd	.
=8	=8	=8	=8	=8	=8	=8
4.GG	4.G	4.b	4.gg	4.GG	4.b	4.gg
2..r	2..r	2..r	2..r	2.g	4r	4r
.	.	.	.	.	8gg	8bb
.	.	.	.	.	4.aa	8ccc
.	.	.	.	.	.	8bb
.	.	.	.	.	.	8aa
.	.	.	.	[4.f#	4r	4ddd
4r	4r	4r	4r	.	.	.
.	.	.	.	.	8ddd	8dd
=9	=9	=9	=9	=9	=9	=9
1.r	1.r	1.r	1.r	4.f#]	4bb	4gg
.	.	.	.	.	8b	8g
.	.	.	.	2.e	4r	4r
.	.	.	.	.	8ee	8ccc
.	.	.	.	.	4.ff#	8aa
.	.	.	.	.	.	8gg
.	.	.	.	.	.	8ff#
.	.	.	.	[4.d	4r	4bb
.	.	.	.	.	8bb	8b
=10	=10	=10	=10	=10	=10	=10
1.r	1.r	1.r	1.r	4.d]	4gg	4ee
.	.	.	.	.	8g	8e
.	.	.	.	2.c	4r	4r
.	.	.	.	.	8cc	8aa
.	.	.	.	.	4.dd	8ff#
.	.	.	.	.	.	8ee
.	.	.	.	.	.	8dd
.	.	.	.	4B	4r	4gg
.	.	.	.	8e	8ee	8gg
=11	=11	=11	=11	=11	=11	=11
2r	2r	2r	2r	8c#	4.a	4.gg
.	.	.	.	8B	.	.
.	.	.	.	8A	.	.
.	.	.	.	4d	4r	4r
8r	8r	8r	8r	.	.	.
8F#	8d	8aa	8ff#	8F#	8aa	8ff#
4G	4d	8gg	8b	4G	8gg	8b
.	.	8aa	8cc#	.	8aa	8cc#
8D	8f#	8ff#	8dd	8D	8ff#	8dd
4A	4a	4.ee	8a	4A	4.ee	8a
.	.	.	8dd	.	.	8dd
8AA	8a	.	8cc#	8AA	.	8cc#
=12	=12	=12	=12	=12	=12	=12
4.D	4.f#	4.dd	4.dd	4.D	4.dd	4.dd
4.d	4r	4r	4r	4.d	4r	4r
.	8d	8f#	8a	.	8f#	8a
2.d	4.d	4g	4b	2.d	4g	4b
.	.	8f#	8a	.	8f#	8a
.	4.d	8g	8b	.	8g	8b
.	.	8f#	8a	.	8f#	8a
.	.	8e	8g	.	8e	8g
=13	=13	=13	=13	=13	=13	=13
4.d	4.d	4f#	4a	4.d	4f#	4a
.	.	8d	8f#	.	8d	8f#
4.G	4r	4r	4r	4.G	4r	4r
.	8g	8b	8dd	.	8b	8dd
2.G	4.g	4cc	4ee	2.G	4cc	4ee
.	.	8b	8dd	.	8b	8dd
.	4.g	8cc	8ee	.	8cc	8ee
.	.	8b	8dd	.	8b	8dd
.	.	8a	8cc	.	8a	8cc
=14	=14	=14	=14	=14	=14	=14
4G	4.g	4b	4dd	4G	4b	4dd
8A	.	8g	8b	8A	8g	8b
4B	4r	4r	4r	4B	4r	4r
8BB	8g	8dd	8dd	8BB	8dd	8dd
4.E	4.g	4dd	4gg	4.E	4dd	4gg
.	.	8cc	8cc	.	8cc	8cc
4.D	4r	4r	4ff#	4.D	4r	4ff#
.	8d	8b	8b	.	8b	8b
=15	=15	=15	=15	=15	=15	=15
4.C	4.e	4b	4ee	4.C	4b	4ee
.	.	8a	8a	.	8a	8a
4.BB	4r	4r	4dd	4.BB	4r	4dd
.	8B	8d	8g	.	8d	8g
4.AA	4.c	4e	4.cc	4.AA	4e	4.cc
.	.	8f#	.	.	8f#	.
4.GG	4.d	4.g	4.b	4.GG	4.g	4.b
=16	=16	=16	=16	=16	=16	=16
4.D	4.d	4.f#	4.a	4.D	4.f#	4.a
2..r	2..r	2..r	2..r	4r	4r	4r
.	.	.	.	8g	8bb	8ddd
.	.	.	.	4.e	4.bb	2.ccc
.	.	.	.	4.f#	[4.aa	.
4r	4r	4r	4r	.	.	.
=17	=17	=17	=17	=17	=17	=17
1.r	1.r	1.r	1.r	2.g	4.aa]	4.bb
.	.	.	.	.	2.gg	4.bb-
.	.	.	.	2.c#	.	2.aa
.	.	.	.	.	[4.gg	.
=18	=18	=18	=18	=18	=18	=18
1.r	1.r	1.r	1.r	2.d	4.gg]	2.aa
.	.	.	.	.	2.gg	.
.	.	.	.	2.c#	.	2.aa
.	.	.	.	.	4.gg	.
=19	=19	=19	=19	=19	=19	=19
2r	2r	2r	2r	4.d	4.ff#	4.aa
.	.	.	.	4r	4r	4r
8r	8r	8r	8r	.	.	.
8B	8g	8b	8dd	8B	8b	8dd
4A	4a	8e	8cc	4A	8e	8cc
.	.	8f#	8dd	.	8f#	8dd
8G	8b	8g	8b	8G	8g	8b
4C	4e	4g	4.a	4C	4g	4.a
8D	8d	8f#	.	8D	8f#	.
=20	=20	=20	=20	=20	=20	=20
4GG	4.d	4.g	4g	4GG	4.g	4g
8AA	.	.	8dd	8AA	.	8dd
4BB	4r	4r	4.gg	4BB	4r	4.gg
8GG	8g	8dd	.	8GG	8dd	.
4C	4.g	4.ee	4r	4C	4.ee	4r
8CC	.	.	8ee	8CC	.	8ee
4r	4r	4r	4.aa	4r	4r	4.aa
8C#	8a	8ee	.	8C#	8ee	.
=21	=21	=21	=21	=21	=21	=21
4D	4.a	4.ff#	4r	4D	4.ff#	4r
8DD	.	.	8ff#	8DD	.	8ff#
4r	4r	4r	4.bb	4r	4r	4.bb
8D#	8b	8ff#	.	8D#	8ff#	.
4E	4.b	4.gg	4r	4E	4.gg	4r
8EE	.	.	8gg	8EE	.	8gg
4r	4r	4r	4.ccc	4r	4r	4.ccc
8F#	8d	8aa	.	8F#	8aa	.
=22	=22	=22	=22	=22	=22	=22
4.G	4.d	4dd	4r	4G	4.dd	4r
.	.	8g	8g	8g	.	8bb
2..r	2..r	4.f#	4.f#	4.f#	4r	4aa
.	.	.	.	.	8dd	8ddd
.	.	4.e	4.e	4.e	4gg	4r
.	.	.	.	.	8cc	8gg
.	.	4.d	4.d	4.d	4r	4ff#
4r	4r	.	.	.	.	.
.	.	.	.	.	8b	8bb
=23	=23	=23	=23	=23	=23	=23
2..r	2..r	4.c	4.c	4.c	4ee	4r
.	.	.	.	.	8a	8ee
.	.	4.B	4.B	4.B	4r	4dd
.	.	.	.	.	8g	8gg
.	.	4.A	4.A	4.A	4.f#	4.cc
2r	2r	.	.	.	.	.
.	.	4r	4r	4r	4r	4r
8G	8g	8dd	8b	8G	8dd	8b
=24	=24	=24	=24	=24	=24	=24
4C	4g	8cc	8e	4C	8cc	8e
.	.	8dd	8f#	.	8dd	8f#
8GG	8B	8b	8g	8GG	8b	8g
4D	4d	4a	4d	4D	4a	4d
8DD	8d	8dd	8f#	8DD	8dd	8f#
4.GG	4.d	4.b	4.g	4.GG	4.b	4.g
4.C	4.c	4.g	4.ee	4.C	4.g	4.ee
=25	=25	=25	=25	=25	=25	=25
4.r	4.r	4.r	4.r	4.r	4.r	4.r
4.BB	4.G	4.g	4.dd	4.BB	4.g	4.dd
2.r	2.r	2.r	2.r	2.r	2.r	2.r
=26	=26	=26	=26	=26	=26	=26
4AA	4A	4f#	4cc	4AA	4f#	4cc
8GG	8B	8g	8b	8GG	8g	8b
4D	4d	4d	4.a	4D	4d	4.a
8DD	8d	8f#	.	8DD	8f#	.
4.GG	4.B	4.g	4.g	4.GG	4.g	4.g
4r	4r	4r	4r	4r	4r	4r
8e	8e	8g	8b	8e	8g	8b
=27	=27	=27	=27	=27	=27	=27
4d#	4.b	4.f#	4.b	4d#	4.f#	4.b
8B	.	.	.	8B	.	.
4E	4r	4.g	4.b	4E	4.g	4.b
8e	8e	.	.	8e	.	.
4d#	4.b	4.f#	4.b	4d#	4.f#	4.b
8B	.	.	.	8B	.	.
4r	4r	4r	4r	4r	4r	4r
8A	8A	8e	8cc	8A	8e	8cc
=28	=28	=28	=28	=28	=28	=28
4G#	4.e	4.e	4.b	4G#	4.e	4.b
8E	.	.	.	8E	.	.
4AA	4r	4.e	4.cc	4AA	4.e	4.cc
8A	8A	.	.	8A	.	.
4G#	4.e	4.e	4.b	4G#	4.e	4.b
8E	.	.	.	8E	.	.
4r	4r	4r	4r	4r	4r	4r
8B	8B	8f#	8dd	8B	8f#	8dd
=29	=29	=29	=29	=29	=29	=29
4A#	4.f#	4.f#	4.cc#	4A#	4.f#	4.cc#
8F#	.	.	.	8F#	.	.
4BB	4r	4.f#	4.dd	4BB	4.f#	4.dd
8B	8B	.	.	8B	.	.
4A#	4.f#	4.f#	4.cc#	4A#	4.f#	4.cc#
8F#	.	.	.	8F#	.	.
4.r	4.r	4.r	4.r	4r	4r	4r
.	.	.	.	8F#	8a#	8ff#
=30	=30	=30	=30	=30	=30	=30
1.r	1.r	1.r	1.r	4.G#	4.b	4ff#
.	.	.	.	.	.	8ee
.	.	.	.	4.A#	4.cc#	4ee
.	.	.	.	.	.	8ee
.	.	.	.	4.B	4.f#	4ee
.	.	.	.	.	.	8dd
.	.	.	.	4.D	4r	4r
.	.	.	.	.	8ff#	8dd
=31	=31	=31	=31	=31	=31	=31
2r	2r	2r	2r	4.E	4.gg	4dd
.	.	.	.	.	.	8cc
.	.	.	.	2.e	4r	4cc
8r	8r	8r	8r	.	.	.
8E	8g	8gg	8b	.	8gg	8b
4.E	4.c	4.ff#	4a#	.	4.ff#	4a#
.	.	.	8f#	.	.	8f#
4D	4.B	4ff#	4.b	4d	4ff#	[4.b
8E	.	8gg	.	8e	8gg	.
=32	=32	=32	=32	=32	=32	=32
4F#	4.f#	4.dd	4.b	4f#	4.dd	4.b]
8E	.	.	.	8e	.	.
4F#	4.f#	4.cc#	4.a#	4f#	4.cc#	4.a#
8FF#	.	.	.	8F#	.	.
4.BB	4.f#	4.b	4.b	4.B	4.b	4b
.	.	.	.	.	.	8ff#
4.r	4.r	4.r	4.r	4.A	4r	[4.bb
.	.	.	.	.	8ff#	.
=33	=33	=33	=33	=33	=33	=33
2..r	2..r	2..r	1r	4.G	[2bb	4bb]
.	.	.	.	.	.	8ff#
.	.	.	.	4.F#	.	[2bb
.	.	.	.	.	8bb]	.
.	.	.	.	.	8ff#	.
.	.	.	.	4.E	[2bb	.
2r	2r	2r	.	.	.	8bb]
.	.	.	8ff#	.	.	8ff#
.	.	.	4.bb	4.D	.	[4.bb
.	.	.	.	.	8bb]	.
8D	8b	8ff#	.	.	8ff#	.
=34	=34	=34	=34	=34	=34	=34
4.E	4.b	4.gg	4r	4.E	4.gg	4bb]
.	.	.	8b	.	.	8b
4r	4r	4r	[2ee	4r	4r	[2ee
8E	8b	8gg	.	8E	8gg	.
4.F#	4.c#	4.a#	.	4.F#	4.a#	.
.	.	.	8ee]	.	.	8ee]
.	.	.	8ff#	.	.	8ff#
4.BB	4r	[4.b	4dd	4.BB	[4.b	4dd
.	8f#	.	8cc#	.	.	8cc#
=35	=35	=35	=35	=35	=35	=35
4.F#	4.f#	4.b]	4.dd	4.F#	4.b]	4.dd
4.FF#	4.f#	4.a#	4.cc#	4.FF#	4.a#	4.cc#
2.BB	2.f#	2.b	2.b	2.BB	2.b	2.b
=36	=36	=36	=36	=36	=36	=36
1.r	1.r	2.r	2.G 2.g	2.G	4g	4b
.	.	.	.	.	8a	8cc
.	.	.	.	.	4b	4dd
.	.	.	.	.	8g	8b
.	.	2.g 2.G	2.G 2.g	2.G	4cc	4ee
.	.	.	.	.	8b	8dd
.	.	.	.	.	8cc	8ee
.	.	.	.	.	8b	8dd
.	.	.	.	.	8a	8cc
=37	=37	=37	=37	=37	=37	=37
1.r	1.r	2.g 2.G	2.G 2.g	2.G	4b	4dd
.	.	.	.	.	8a	8cc
.	.	.	.	.	4b	4dd
.	.	.	.	.	8g	8b
.	.	4.c	4.c	4.C	8e	8cc
.	.	.	.	.	8f#	8dd
.	.	.	.	.	8g	8b
.	.	4.d	4.d	4.D	8d	4a
.	.	.	.	.	8g	.
.	.	.	.	.	8f#	8dd
=38	=38	=38	=38	=38	=38	=38
1.r	1.r	4.G	4.G	4.GG	4g	4b
.	.	.	.	.	8a	8cc
.	.	2..r	4.r	4.r	4b	4dd
.	.	.	.	.	8g	8b
.	.	.	2.d 2.dd	2.D	4d	4f#
.	.	.	.	.	8e	8g
.	.	.	.	.	4f#	4a
.	.	4r	.	.	.	.
.	.	.	.	.	8d	8f#
=39	=39	=39	=39	=39	=39	=39
1.r	1.r	2.d 2.dd	2.dd 2.d	2.D	4g	4b
.	.	.	.	.	8f#	8a
.	.	.	.	.	8g	8b
.	.	.	.	.	8f#	8a
.	.	.	.	.	8e	8g
.	.	2.dd 2.d	2.dd 2.d	2.D	4f#	4a
.	.	.	.	.	8e	8g
.	.	.	.	.	4f#	4a
.	.	.	.	.	8d	8f#
=40	=40	=40	=40	=40	=40	=40
1.r	1.r	4.G	4.G	4.GG	8B	8g
.	.	.	.	.	8c#	8a
.	.	.	.	.	8d	8f#
.	.	4.A	4.A	4.AA	8A	4e
.	.	.	.	.	8d	.
.	.	.	.	.	8c#	8a
.	.	4.d	4.d	4.DD	4d	4f#
.	.	.	.	.	8e	8g
.	.	4.r	4.r	4.r	4f#	4a
.	.	.	.	.	8d	8f#
=41	=41	=41	=41	=41	=41	=41
4GG	2.g 2.G	4b	2.gg	4GG	4b	2.gg
8AA	.	8cc	.	8AA	8cc	.
4BB	.	4dd	.	4BB	4dd	.
8GG	.	8b	.	8GG	8b	.
4C	2.g 2.G	4ee	2.gg	4C	4ee	2.gg
8BB	.	8dd	.	8BB	8dd	.
8C	.	8ee	.	8C	8ee	.
8BB	.	8dd	.	8BB	8dd	.
8AA	.	8cc	.	8AA	8cc	.
=42	=42	=42	=42	=42	=42	=42
4BB	2.g 2.G	4dd	2.gg	4BB	4dd	2.gg
8AA	.	8cc	.	8AA	8cc	.
4BB	.	4dd	.	4BB	4dd	.
8GG	.	8b	.	8GG	8b	.
8C	4.c	8ee	4.gg	8C	8ee	4.gg
8BB	.	8dd	.	8BB	8dd	.
8C	.	8ee	.	8C	8ee	.
4D	4.d	4a	4.ff#	4D	4a	4.ff#
8DD	.	8dd	.	8DD	8dd	.
=43	=43	=43	=43	=43	=43	=43
4.GG	4.G	4.b	4.gg	4.GG	4.b	4.gg
2..r	2..r	2..r	2..r	2.g	4r	4r
.	.	.	.	.	8gg	8bb
.	.	.	.	.	4.aa	8ccc
.	.	.	.	.	.	8bb
.	.	.	.	.	.	8aa
.	.	.	.	[4.f#	4r	4ddd
4r	4r	4r	4r	.	.	.
.	.	.	.	.	8ddd	8dd
=44	=44	=44	=44	=44	=44	=44
1.r	1.r	1.r	1.r	4.f#]	4bb	4gg
.	.	.	.	.	8b	8g
.	.	.	.	2.e	4r	4r
.	.	.	.	.	8ee	8ccc
.	.	.	.	.	4.ff#	8aa
.	.	.	.	.	.	8gg
.	.	.	.	.	.	8ff#
.	.	.	.	[4.d	4r	4bb
.	.	.	.	.	8bb	8b
=45	=45	=45	=45	=45	=45	=45
1.r	1.r	1.r	1.r	4.d]	4gg	4ee
.	.	.	.	.	8g	8e
.	.	.	.	2.c	4r	4r
.	.	.	.	.	8cc	8aa
.	.	.	.	.	4.dd	8ff#
.	.	.	.	.	.	8ee
.	.	.	.	.	.	8dd
.	.	.	.	4B	4r	4gg
.	.	.	.	8e	8ee	8gg
=46	=46	=46	=46	=46	=46	=46
2r	2r	2r	2r	8c#	4.a	4.gg
.	.	.	.	8B	.	.
.	.	.	.	8A	.	.
.	.	.	.	4d	4r	4r
8r	8r	8r	8r	.	.	.
8F#	8d	8aa	8ff#	8F#	8aa	8ff#
4G	4d	8gg	8b	4G	8gg	8b
.	.	8aa	8cc#	.	8aa	8cc#
8D	8f#	8ff#	8dd	8D	8ff#	8dd
4A	4a	4.ee	8a	4A	4.ee	8a
.	.	.	8dd	.	.	8dd
8AA	8a	.	8cc#	8AA	.	8cc#
=47	=47	=47	=47	=47	=47	=47
4.D	4.f#	4.dd	[1.dd	4.D	4.dd	[1.dd
4r	4r	4r	.	4r	4r	.
8G	8g	8b	.	8G	8b	.
4F#	4.dd	4a	.	4F#	4a	.
8E	.	8g	.	8E	8g	.
4F#	4.d	4a	.	4F#	4a	.
8D	.	8f#	.	8D	8f#	.
=48	=48	=48	=48	=48	=48	=48
4G	4.d	4b	1.dd_	4G	4b	1.dd_
8A	.	8cc	.	8A	8cc	.
4B	4r	4dd	.	4B	4dd	.
8G	8g	8b	.	8G	8b	.
4F#	4.dd	4a	.	4F#	4a	.
8E	.	8g	.	8E	8g	.
4F#	4.d	4a	.	4F#	4a	.
8D	.	8f#	.	8D	8f#	.
=49	=49	=49	=49	=49	=49	=49
4G	4.d	4b	2..dd]	4G	4b	2..dd]
8A	.	8cc	.	8A	8cc	.
4B	4r	4dd	.	4B	4dd	.
8G	8d	8b	.	8G	8b	.
4.E	4.g	4.g	.	4.E	4.g	.
.	.	.	8cc	.	.	8cc
.	.	.	8b	.	.	8b
4r	4r	4r	[4.cc	4r	4r	[4.cc
8F#	8d	8a	.	8F#	8a	.
=50	=50	=50	=50	=50	=50	=50
4.G	4.d	4.d	8cc]	4.G	4.d	8cc#]
.	.	.	8b	.	.	8b
.	.	.	8a	.	.	8a
4r	4r	4r	[2b	4r	4r	[2b
8G	8B	8dd	.	8G	8dd	.
4.C	4.c	4.ee	.	4.C	4.ee	.
.	.	.	8b]	.	.	8b]
.	.	.	8e	.	.	8e
4r	4r	4r	[4.a	4r	4r	[4.a
8C	8c	8ee	.	8C	8ee	.
=51	=51	=51	=51	=51	=51	=51
4.BB	4.d	4.dd	4a]	4.BB	4.dd	4a]
.	.	.	8d	.	.	8d
4r	4r	4r	2.g	4r	4r	2.g
8BB	8g	8dd	.	8BB	8dd	.
4C	4e	8cc	.	4C	8cc	.
.	.	8dd	.	.	8dd	.
8GG	8d	8b	.	8GG	8b	.
4D	4.d	4a	4.f#	4D	4a	4.f#
8DD	.	8dd	.	8DD	8dd	.
=52	=52	=52	=52	=52	=52	=52
4.GG	4.d	4.b	2.g 2.G	4.GG	4.b	2.g 2.G
4r	4r	4r	.	4r	4r	.
8BB	8g	8d	.	8BB	8d	.
4C	4.g	4e	2.g 2.G	4C	4e	2.g 2.G
8BB	.	8d	.	8BB	8d	.
4C	4.g	4e	.	4C	4e	.
8AA	.	8c	.	8AA	8c	.
=53	=53	=53	=53	=53	=53	=53
4BB	4.g	4d	2.g 2.G	4BB	4d	2.g 2.G
8AA	.	8c	.	8AA	8c	.
4BB	4r	4d	.	4BB	4d	.
8GG	8g	8B	.	8GG	8B	.
4C	4.g	4e	2.G 2.g	4C	4e	2.g 2.G
8BB	.	8d	.	8BB	8d	.
8C	4.g	8e	.	8C	8e	.
8BB	.	8d	.	8BB	8d	.
8AA	.	8c	.	8AA	8c	.
=54	=54	=54	=54	=54	=54	=54
4BB	4.g	4d	2.g 2.G	4BB	4d	2.g 2.G
8AA	.	8c	.	8AA	8c	.
4BB	4r	4d	.	4BB	4d	.
8GG	8B	8B	.	8GG	8B	.
4C	4.c	4e	2.g 2.G	4C	4e	2.g 2.G
8BB	.	8d	.	8BB	8d	.
4AA	4r	4c	.	4AA	4c	.
8GG	8c	8B	.	8GG	8B	.
=55	=55	=55	=55	=55	=55	=55
4.D	4.d	4.A	4.f#	4.D	4.A	4.f#
4.GG	4.d	4.B	4.g	4.GG	4.B	4.g
4.D	4.d	4.A	4.g	4.D	4.A	4.g
4r	4r	4r	4r	4r	4r	4r
8DD	8d	8d	8f#	8DD	8d	8f#
=56	=56	=56	=56	=56	=56	=56
4.GG	4.d	4.B	4.g	4.GG	4.B	4.g
4.r	4.r	4.r	4.r	4.r	4.r	4.r
4.DD	4.d	4.f#	4.a	4.DD	4.f#	4.a
4.r	4.r	4.r	4.r	4.r	4.r	4.r
=57	=57	=57	=57	=57	=57	=57
4.GG	4.d	4.g	4.b	4.GG	4.g	4.b
2..r	2..r	2..r	2..r	2..r	2..r	2..r
4r	4r	4r	4r	4r	4r	4r
==	==	==	==	==	==	==
*-	*-	*-	*-	*-	*-	*-
!!!RWG: This file only contains pitch and duration data.
!!!RWG: Transposing instruments are not transposed.
!!!RWG: Durations of rests and tied notes may be interpreted.
!!!RWG: Key is interpreted using the Humdrum key tool.
!!!SCA: 
!!!YOR: Chrysander Edition
!!!AGN: concerto grosso
!!!AFT: stage1
!!!ENC: F. Bennion
!!!END: 1997/04/15
!!!AST: baroque
!!!YEC: Copyright 1994, Center for Computer Assisted Research in the Humanities
!!!YEM: Rights to all derivative electronic formats reserved.
!!!YEM: Refer to licensing agreement for further details.
!!!YEN: United States of America
!!!EED: W.B. Hewlett
!!!KEY: 864367358
!!!EMD: Converted from MuseData to Humdrum Aug 9, 1999, by Bret Aarden using muse2kern.
!!!VTS: 2867445403
